site/static/organisations/beyonk.svg

<svg enable-background="new 0 0 263.2 127" viewBox="0 0 263.2 127" xmlns="http://www.w3.org/2000/svg"><path d="m263.2 28.5v-5.9h-22.5v-22.6h-5.9v22.5h-206.3v-22.5h-5.9v22.5h-22.6v5.9h22.5v70.1h-22.5v5.9h22.5v22.6h5.9v-22.5h206.4v22.5h5.9v-22.5h22.5v-5.9h-22.5v-70.1zm-28.4 70h-206.3v-70h206.4v70zm-183.9-46.3h9.3c1.7-.1 3.4.4 4.7 1.5 1.1 1.1 1.7 2.7 1.6 4.3 0 1-.2 2-.6 2.8s-1.1 1.4-1.9 1.9c.7.1 1.5.4 2.1.7s1 .7 1.4 1.2.6 1 .8 1.6.2 1.3.2 1.9c0 1-.2 1.9-.6 2.8-.4.8-.9 1.5-1.6 2.1s-1.5 1-2.4 1.2c-1.1.3-2.1.4-3.2.4h-9.7zm5.9 8.9h1.7c1.8 0 2.8-.7 2.8-2.2s-.9-2.2-2.8-2.2h-1.7zm0 9.1h1.9c1.1.1 2.2-.1 3.2-.6 1-.7 1.3-2.1.5-3.1-.1-.2-.3-.4-.5-.5-1-.5-2.1-.6-3.2-.6h-1.9zm36.2-13h-9.9v3.8h9.6v5h-9.6v3.9h9.9v5h-15.8v-22.7h15.8zm15.2 8.5-8.2-13.5h7l4.2 7.3 4.2-7.3h7l-8.4 13.5v9h-5.8zm17.8-2.2c0-1.6.3-3.2.9-4.7 1.2-2.9 3.6-5.2 6.5-6.3 3.2-1.2 6.8-1.2 10.1 0 1.5.6 2.9 1.4 4 2.5s2 2.4 2.5 3.8c1.2 3 1.2 6.4 0 9.4-.6 1.4-1.5 2.7-2.6 3.8s-2.5 2-4 2.5c-3.2 1.2-6.8 1.2-10.1 0-1.5-.6-2.8-1.4-3.9-2.5s-2-2.4-2.6-3.8c-.5-1.5-.8-3.1-.8-4.7zm6.1 0c0 .9.2 1.7.5 2.5.6 1.5 1.9 2.7 3.4 3.3 2.4 1 5.1.4 6.9-1.3.6-.6 1.1-1.2 1.4-2 .7-1.6.7-3.4 0-5-.3-.8-.8-1.4-1.4-2-1.9-1.7-4.5-2.2-6.9-1.3-1.5.6-2.7 1.8-3.4 3.4-.3.7-.5 1.5-.5 2.4zm26.5 11.3v-22.6h5.9l10.8 13.8v-13.8h5.8v22.5h-5.8l-10.8-13.7v13.8zm38.1-13.3 7.1-9.3h7.2l-8.9 10.7 9.8 11.9h-7.6l-7.6-9.8v9.8h-5.9v-22.6h5.9z"/></svg>

<?xml version="1.0" encoding="utf-8"?>
<svg version="1.1" xmlns="http://www.w3.org/2000/svg" xmlns:xlink="http://www.w3.org/1999/xlink" x="0px" y="0px"
	 viewBox="0 0 263.2 127" style="enable-background:new 0 0 263.2 127;" xml:space="preserve">
<g>
	<g>
		<path class="st0" d="M263.2,28.5v-5.9h-22.5V0h-5.9v22.5H28.5V0h-5.9v22.5H0v5.9h22.5v70.1H0v5.9h22.5V127h5.9v-22.5h206.4V127
			h5.9v-22.5h22.5v-5.9h-22.5V28.5H263.2z M234.8,98.5H28.5V28.5h206.4V98.5z M50.9,52.2h9.3c1.7-0.1,3.4,0.4,4.7,1.5
			c1.1,1.1,1.7,2.7,1.6,4.3c0,1-0.2,2-0.6,2.8c-0.4,0.8-1.1,1.4-1.9,1.9c0.7,0.1,1.5,0.4,2.1,0.7c0.6,0.3,1,0.7,1.4,1.2
			c0.4,0.5,0.6,1,0.8,1.6c0.2,0.6,0.2,1.3,0.2,1.9c0,1-0.2,1.9-0.6,2.8c-0.4,0.8-0.9,1.5-1.6,2.1c-0.7,0.6-1.5,1-2.4,1.2
			c-1.1,0.3-2.1,0.4-3.2,0.4H51L50.9,52.2z M56.8,61.1h1.7c1.8,0,2.8-0.7,2.8-2.2s-0.9-2.2-2.8-2.2h-1.7V61.1z M56.8,70.2h1.9
			c1.1,0.1,2.2-0.1,3.2-0.6c1-0.7,1.3-2.1,0.5-3.1c-0.1-0.2-0.3-0.4-0.5-0.5c-1-0.5-2.1-0.6-3.2-0.6h-1.9V70.2z M93,57.2h-9.9V61
			h9.6v5h-9.6v3.9H93v5H77.2V52.2H93V57.2z M108.2,65.7l-8.2-13.5h7l4.2,7.3l4.2-7.3h7L114,65.7v9h-5.8V65.7z M126,63.5
			c0-1.6,0.3-3.2,0.9-4.7c1.2-2.9,3.6-5.2,6.5-6.3c3.2-1.2,6.8-1.2,10.1,0c1.5,0.6,2.9,1.4,4,2.5c1.1,1.1,2,2.4,2.5,3.8
			c1.2,3,1.2,6.4,0,9.4c-0.6,1.4-1.5,2.7-2.6,3.8c-1.1,1.1-2.5,2-4,2.5c-3.2,1.2-6.8,1.2-10.1,0c-1.5-0.6-2.8-1.4-3.9-2.5
			c-1.1-1.1-2-2.4-2.6-3.8C126.3,66.7,126,65.1,126,63.5z M132.1,63.5c0,0.9,0.2,1.7,0.5,2.5c0.6,1.5,1.9,2.7,3.4,3.3
			c2.4,1,5.1,0.4,6.9-1.3c0.6-0.6,1.1-1.2,1.4-2c0.7-1.6,0.7-3.4,0-5c-0.3-0.8-0.8-1.4-1.4-2c-1.9-1.7-4.5-2.2-6.9-1.3
			c-1.5,0.6-2.7,1.8-3.4,3.4C132.3,61.8,132.1,62.6,132.1,63.5L132.1,63.5z M158.6,74.8V52.2h5.9L175.3,66V52.2h5.8v22.5h-5.8
			L164.5,61v13.8H158.6z M196.7,61.5l7.1-9.3h7.2l-8.9,10.7l9.8,11.9h-7.6l-7.6-9.8v9.8h-5.9V52.2h5.9V61.5z"/>
	</g>
</g>
</svg>
